X: 1
T: Pols fra Lom
O: efter Hans Brimi
R: Roros-pols
M: 3/4
L: 1/8
K: Dm
|: "A7"a2 ag e>g | "Dm"f2 fe d>f | "A7"e2 e^c (3A=B^c |1,3 "Dm"d>^c d>e f>g :|2,4 "Dm"d2 d4 |]
|: "Gm"{A}B2 B>A G>B | "D7"A2 A<^F D2- | "D7"D2 ^F>G A>F |1,3 "Gm"G2 G>^F G>A :|2,4 "Gm"G2 G4 |]
